X:1
T:Psalm 136
T:C Major, C minor   Israel Holdroyd, 1722
T:Thomas Norton, 1562 Old Version (Psalm 136)          8 10.8 10.                   
T:Transcribed from The Spiritual Man's Companion, 1724
T:No Copyright.  Transcribed from Suffolk Harmony, 1786.
T:No Copyright.  Transcribed from Suffolk Harmony, 1786.
Z:No Copyright.  Transcribed from Suffolk Harmony, 1786.
%%score [ 1 2 3 4 ]
L:1/8
Q:1/4=190
M:3/2
K:C
V:1 treble nm="Tr." snm="Tr."
V:2 treble nm="C." snm="C."
V:3 treble-8 nm="T." snm="T."
V:4 bass nm="B." snm="B."
V:1
 z4 | z12 | z12 | z12 | z8 B2 B2 | c4 B4 c4 | A4 A4 G4 | G4 G4 z4 | z12 | z12 | z12 | z8 B2 B2 | %12
 c4 B4 c4 | A4 A4 G4 | G4 G4 G4 | c8 B4 | A8 G4 | A4 ^F8 | G8 B2 B2 | c4 B4 c4 | A4 A4 G4 | %21
 G4 G4 G4 | c8 B4 | A8 G4 | A4 ^F8 | G8 B2 B2 | c4 B4 c4 | A4 A4 G4 | G4 G4 z4 ||[K:Eb] z12 | z12 | %31
 z12 | z8 =B2 B2 | c4 =B4 c4 | A4 A4 G4 | G4 G4 z4 | z12 | z12 | z12 | z8 =B2 B2 | c4 =B4 c4 | %41
 A4 A4 G4 | G4 G4 G4 | G8 =A4 | B8 c4 | d8 c4 | =B8 B2 B2 | c4 =B4 c4 | A4 A4 G4 | G4 G4 z4 | z12 | %51
 z12 | z12 | z8 =B2 B2 | c4 =B4 c4 | A4 A4 G4 | G4 G4 |] %57
V:2
"_Praise   ye   the    Lord,   for   he   is  good,  For his mercy en–du–reth  for  ev–er.  Give praise un – to      the   God        of  gods,  For his" z4 | %1
 z12 | z12 | z12 | z8 D2 D2 | E4 F4 G4 | F4 F4 D4 | E4 C4 E4 | A8 G4 | F8 G4 | F8 E4 | D8 D2 D2 | %12
"_mercy en–du–reth  for  ev – er. Give praise un – to  the  Lord   of   lords,  For his  mercy en–du–reth  for   ev – er.  Who    on –ly  doth great" E4 F4 G4 | %13
 F4 F4 D4 | E4 C4 z4 | z12 | z12 | z12 | z8 D2 D2 | E4 F4 G4 | F4 F4 D4 | E4 C4 E4 | G8 G4 | %23
 E8 E4 | %24
"_wondrous works, For his mercy  en–du–reth  for  ev–er.  Who         by  his  wisdom  made  the  heavens,   For  his  mercy  en –du –reth  for" C8 C4 | %25
 D8 D2 D2 | E4 F4 G4 | F4 F4 D4 | E4 C4 z4 ||[K:Eb] z12 | z12 | z12 | z8 D2 D2 | E4 F4 G4 | %34
 F4 F4 D4 | %35
"_ev–er. Who  on ________  the   wa         –          ters   stretched ____  the  earth,  For his mercy  en –du–reth  for  ev–er. Who made great" E4 C4 F4 | %36
 (G4 FEDC) D4 | E8 F4 | (G4 FEDC) F4 | D8 D2 D2 | E4 F4 G4 | F4 F4 D4 | E4 C4 z4 | z12 | %44
"_lights  to   shine _________________ a –broad,  For his  mercy   en – du–reth  for  ev – er.  The  sun         to        rule    the    light–some" z12 | %45
 z12 | z8 D2 D2 | E4 F4 G4 | F4 F4 D4 | E4 C4 z4 | z12 | z12 | z12 | %53
"_day,       For  his  mer – cy   en  –  du – reth  for    ev – er." z8 D2 D2 | E4 F4 G4 | %55
 F4 F4 D4 | E4 C4 |] %57
V:3
 (G2 F2) | E8 G4 | c8 (e2 d2) | c4 B8 | c8 G2 G2 | c4 d4 e4 | c4 d4 B4 | c4 c4 z4 | z12 | z12 | %10
 z12 | z8 G2 G2 | c4 d4 e4 | c4 d4 B4 | c4 c4 z4 | z12 | z12 | z12 | z8 G2 G2 | c4 d4 e4 | %20
 c4 d4 B4 | c4 c4 (c2 d2) | e8 d4 | c8 B4 | A8 A4 | B8 A2 A2 | c4 d4 e4 | c4 d4 B4 | c4 c4 c4 || %29
[K:Eb] c8 =B4 | c8 G4 | c8 (d2 c2) | =B8 G2 G2 | c4 d4 e4 | c4 d4 =B4 | c4 c4 z4 | z12 | z12 | %38
 z12 | z8 G2 G2 | c4 d4 e4 | c4 d4 B4 | c4 c4 c4 | =B8 c4 | d8 c4 | (=B4 c/d/e/d/c/d/e/d/) c4 | %46
 d8 G2 G2 | c4 d4 e4 | c4 d4 B4 | c4 c4 c4 | (d4 G4) =B4 | c8 d4 | e4 =A8 | G8 G2 G2 | c4 d4 e4 | %55
 c4 d4 B4 | c4 c4 |] %57
V:4
 C,4 | C,8 (G,2 F,2) | E,8 C,4 | F,4 G,8 | C,8 G,2 F,2 | E,4 D,4 C,4 | F,4 D,4 G,4 | C,4 C,4 C,4 | %8
 F,8 G,4 | (A,4 G,2 F,2) E,4 | (F,4 E,2 D,2) C,4 | G,8 G,2 F,2 | E,4 D,4 C,4 | F,4 D,4 G,4 | %14
 C,4 C,4 C,4 | C,8 G,,4 | A,,8 E,4 | D,8 D,4 | G,,8 G,2 F,2 | E,4 D,4 C,4 | F,4 D,4 G,4 | %21
 C,4 C,4 C,4 | C8 G,4 | A,8 E,4 | F,8 D,4 | G,8 G,2 F,2 | E,4 D,4 C,4 | F,4 D,4 G,4 | %28
 C,4 C,4 C,4 ||[K:Eb] E,8 G,4 | C,8 E,4 | C,8 F,4 | G,8 G,2 F,2 | E,4 D,4 C,4 | F,4 D,4 G,4 | %35
 C,4 C,4 D,4 | E,8 F,4 | (G,4 F,E,D,C,) D,4 | E,8 F,4 | G,8 G,2 F,2 | E,4 D,4 C,4 | F,4 D,4 G,4 | %42
 C,4 C,4 C,4 | G,8 F,4 | B,8 A,4 | G,8 C,4 | G,8 G,2 F,2 | E,4 D,4 C,4 | F,4 D,4 G,4 | %49
 C,4 C,4 C,4 | (G,2 F,2 E,4) D,4 | C,8 (G,2 F,2) | E,4 F,8 | G,8 G,2 F,2 | E,4 D,4 C,4 | %55
 F,4 D,4 G,4 | C,4 C,4 |] %57

